X:1
T:Title
%%score { ( 1 3 4 ) | ( 2 5 ) }
L:1/8
M:4/4
K:Bb
V:1 treble nm="Grand Piano"
V:3 treble 
V:4 treble 
V:2 bass 
V:5 bass 
V:1
 z4 z2 z[Q:1/4=82] [DF] | [DF][DF][DF][DF] G G2 G | AAAA [DB]3 [DF] | [DF][DF][DF][DF] GGGG | %4
 AGAF [DB]3 [Fd] | .[Fd].[Fd].[Ff].[Ff] .c.c.d.d | GBF[B,FB] [Ac][Bd] [Ac]>[F,F] | FFFF ^FF =F>F | %8
[M:11/16] FF^FF=F3/2 |[M:5/16] z/ f-<f- |[M:4/4] f8 | A/A/A/A/ [Ac]/[Ac]/[Ac]/[Ac]/ [Af]F z2 | %12
 eedd c c2 [Bd] | [ce][ce][Bd][Bd] [Ac] [Ac]3 | f>e d>d d/e/d/[Ec]/ [DB]>[FB] | %15
 c/c/c/c/ AA B[K:bass]B,,/>B,,/ B,,2 | f>e d>d d/e/d/[Ec]/ [DB]>[FB] | %17
 [=EB]/[Ec]/[EB]/[EA]/ [EG][Ec] F2 z2 | B,2 B,2 B,B,B,B, | F/F/F [DF]/[DF]/[DF] [EG][EG] [B,EG]2 | %20
 [DF][DF] [B,DF]2 EE D2 | FFGG AABB | [Ac]/[Ac]/[Ac]/[Ac]/ [Ae][EFA] [DFB]4 | z8 | %24
 z2[K:bass] B,B, B,B,B,B, | FF z z/ F/ [EG]/G/[EG]/G/ B,B, | FF [DF]2 EE D2 | d>d d<d f>f [Fd]2 | %28
 e/e/e/e/ cc d>d [DB]2 | FFGG A/A/A/A/ B/B/B/B/ | %30
[M:7/8] [EAc]/[EAc]/[EAc]/[EAc]/[Ae]/[Ae]/ [EFA] [DFB]2 z |] %31
V:2
 z4 z2 z [B,,B,] | [B,,B,][B,,B,][B,,B,][B,,B,] [E,B,E] [E,B,E]2 [E,B,E] | %2
 [F,E][F,D][F,E][F,C] [B,,F,]3 [B,,B,] | %3
 [B,,B,][B,,B,][B,,B,][B,,B,] [E,B,E][E,B,E][E,B,E][E,B,E] | [F,E][F,E][F,E][F,E] [B,,F,]3 B, | %5
 B,B,.[D,B,].[D,B,][K:treble] .[F,A,F].[F,A,F].[B,F].[B,F] | [E,B,E][G,B,E][B,D]D, F,F, F,>E, | %7
 F,F,F,F, ^F,F, =F,>F, |[M:11/16] F,F,^F,F,=F,3/2 |[M:5/16] z/ z/ z [F,C]/ | %10
[M:4/4] [F,C]3- [F,C]/[F,C]/ [F,C]3- [F,C]/[F,CF]/ | %11
 [F,CF]/[F,CF]/[F,CF]/[F,CF]/ [F,C]/[F,C]/[F,C]/[F,C]/ [F,C]F, z2 | %12
 [F,CF][F,CF][F,B,F][F,B,F] [F,A,F] [F,A,F]2 [F,F] | [A,F][A,F][B,F][B,F] [F,F] [F,F]3 | %14
 [B,DF]>[B,CF] [B,F]>[B,F] [B,F]/[B,G]/[B,F]/[K:bass][B,,B,]/ [B,,F,]>[D,B,] | %15
 [F,EF]/[F,EF]/[K:treble][F,EF]/[F,EF]/ [F,CF][F,CF] .[B,DF]2 z2 | %16
 [B,DF]>[B,CF] [B,F]>[B,F] [B,F]/[B,G]/[B,F]/[K:bass][B,,B,]/ [B,,F,]>E, | %17
 [C,G,]/[C,G,]/[C,G,]/[C,G,]/ [C,C][C,B,] [F,A,]2 z2 | z2 B,,2 z2 B,,B,, | %19
 [B,D]/[B,D]/[B,D] [B,,B,]/[B,,B,]/[B,,B,] B,B, B,,2 | B,B, B,,2 [B,C][B,C] [B,,F,B,]2 | %21
 [F,A,C][F,A,C][F,B,][F,B,F] [F,CF][F,CF][F,CF][F,DF] | [F,E]/[F,E]/[F,E]/[F,E]/ [F,C]F, B,,4 | %23
 B>B B2 B/B/B B2 | B,B,B,,B,, z2 B,,B,, | [B,D][B,D] .[B,,B,]>[K:treble]D z/ .EE/[K:bass] B,,B,, | %26
 [B,D][B,D] [B,,B,]2 [B,C][B,C] [B,,F,B,]2 | %27
 [B,F]>[B,F] [B,F]<[G,B,F] [B,DF]>[B,DF][K:bass] [B,,B,]2 | %28
 [F,CF]/[F,CF]/[F,CF]/[F,CF]/[K:treble] [F,A,F][F,A,F] [B,F]>[B,F][K:bass] [B,,F,]2 | %29
 [F,A,C][F,A,C][F,B,F][F,B,F][K:treble] F/F/F/F/ F/F/F/F/ | %30
[M:7/8][K:bass] F,/F,/F,/F,/[F,C]/[F,C]/ F, B,,2 z |] %31
V:3
 x8 | x8 | x8 | x8 | x8 | x8 | x8 | x8 |[M:11/16] x11/2 |[M:5/16] f/ z/ z A/ | %10
[M:4/4] A3- A/A/ A3- A/A/ | x8 | x8 | x8 | x8 | x5[K:bass] x3 | x8 | x8 | x8 | x8 | x8 | x8 | x8 | %23
 x8 | x2[K:bass] x6 | z2 [DF]2 z2 [EG]2 | x8 | x8 | x8 | x8 |[M:7/8] x7 |] %31
V:4
 x8 | x8 | x8 | x8 | x8 | x8 | x8 | x8 |[M:11/16] x11/2 |[M:5/16] x5/2 |[M:4/4] x8 | x8 | x8 | x8 | %14
 x8 | x5[K:bass] x3 | x8 | x8 | x8 | x8 | x8 | x8 | x8 | x8 | x2[K:bass] x6 | z2 z B, z4 | x8 | %27
 x8 | x8 | x8 |[M:7/8] x7 |] %31
V:5
 x8 | x8 | x8 | x8 | x8 | x4[K:treble] x4 | x8 | x8 |[M:11/16] x11/2 |[M:5/16] x5/2 |[M:4/4] x8 | %11
 x8 | x8 | x8 | x11/2[K:bass] x5/2 | x[K:treble] x7 | x11/2[K:bass] x5/2 | x8 | x8 | x8 | x8 | x8 | %22
 x8 | x8 | x8 | z2 z B,,[K:treble] B,B,[K:bass] z2 | x8 | x6[K:bass] x2 | %28
 x2[K:treble] x4[K:bass] x2 | z4[K:treble] [F,C][F,C][F,D][F,D] |[M:7/8][K:bass] x7 |] %31

